svgs/duotone/circle-i.svg

<svg xmlns="http://www.w3.org/2000/svg" viewBox="0 0 512 512"><!--! Font Awesome Pro 6.4.2 by @fontawesome - https://fontawesome.com License - https://fontawesome.com/license (Commercial License) Copyright 2023 Fonticons, Inc. --><defs><style>.fa-secondary{opacity:.4}</style></defs><path class="fa-primary" d="M160 152c0-13.3 10.7-24 24-24h72 72c13.3 0 24 10.7 24 24s-10.7 24-24 24H280V336h48c13.3 0 24 10.7 24 24s-10.7 24-24 24H184c-13.3 0-24-10.7-24-24s10.7-24 24-24h48V176H184c-13.3 0-24-10.7-24-24z"/><path class="fa-secondary" d="M256 512A256 256 0 1 0 256 0a256 256 0 1 0 0 512zM184 128h72 72c13.3 0 24 10.7 24 24s-10.7 24-24 24H280V336h48c13.3 0 24 10.7 24 24s-10.7 24-24 24H184c-13.3 0-24-10.7-24-24s10.7-24 24-24h48V176H184c-13.3 0-24-10.7-24-24s10.7-24 24-24z"/></svg>

<svg xmlns="http://www.w3.org/2000/svg" viewBox="0 0 512 512"><!--! Font Awesome Pro 6.0.0-alpha3 by @fontawesome - https://fontawesome.com License - https://fontawesome.com/license (Commercial License) --><defs><style>.fa-secondary{opacity:.4}</style></defs><path class="fa-primary" d="M328 176C341.3 176 352 165.3 352 152S341.3 128 328 128h-144C170.8 128 160 138.8 160 152S170.8 176 184 176h48v160h-48C170.8 336 160 346.8 160 360S170.8 384 184 384h144c13.25 0 24-10.75 24-24s-10.75-24-24-24h-48v-160H328z"/><path class="fa-secondary" d="M256 0C114.6 0 0 114.6 0 256s114.6 256 256 256s256-114.6 256-256S397.4 0 256 0zM328 336c13.25 0 24 10.75 24 24S341.3 384 328 384h-144C170.8 384 160 373.3 160 360s10.75-24 24-24h48v-160h-48C170.8 176 160 165.3 160 152S170.8 128 184 128h144C341.3 128 352 138.8 352 152S341.3 176 328 176h-48v160H328z"/></svg>
